X:4260
T:Wer war es, der den Lorbeer brach
C:Clemens non papa
Z:Transcribed by Frank Nordberg - http://www.musicaviva.com
F:http://abc.musicaviva.com/tunes/papa-clemens-non/papa-wer-war-es/papa-wer-war-es-3m.abc
M:C
L:1/4
K:F
V:1
FF/F/FF|F/E/F/G/A2|AA/A/GF|FEF2|
V:2
A,A,/A,/A,A,|DDC2|C(C/C/)CA,|B,G,A,2|
w:Wer war es, der den Lor-beer brach, und ihn an sei-ne Kap-pen stak?
V:3
F,F,/F,/D,D,|B,,B,,F,2|F,F,/F,/C,D,|B,,C,F,2|
%
V:1
z AGG|FAG2|F2 z F|FF/F/FF|
V:2
z FDE|CD(B,C)|A,2 z A,|A,(D/D/)CD|
w:Ich wills euch of-fen-ba--ren. Wir rie-fen das Kreuz vom
V:3
z F,G,E,|F,D,(E,C,)|D,2 z D,|D,D,/D,/F,B,,|
%
V:1
F/E/F/G/AA|B>BAG-|G(F2E)|HF4|]
V:2
DDCC|DDCB,|(A,G,/F,/G,2)|HF,4|]
w:Him-mel an, wir from-men Lands-knecht al----le.
V:3
B,,B,,F,F,|B,,B,,F,G,|(C,D,C,2)|HF,4|]
W:
W:Wer war es, der den Lorbeer brach
W:und ihn an seine Kappen stak?
W:Ich wlls euch offenbaren.
W:Wir riefen das Keuz vom Himmel an,
W:wir frommen Ladsknect alle.
W:
W:Es war an einem Montag,
W:als der Sturm auf M\"unster annebrach,
W:wohl um die siebte Stunde.
W:Da blieb so mancher Landsknecht tot,
W:vor M\"unster in der Runde.
W:
W:Zum Sturme wars nun kurze Zeit,
W:bis die Mette war bereit.
W:Die Mette war gesungen,
W:Dann schossen wir los der B\"uchsen drei,
W:Alarm! so schlugen die Trummen.
W:
W:Die Landsknecht warn in gro\sser Not,
W:da blieben wohl dreitausend tot
W:in anderthalben Stunden.
W:War das nicht der Knechte ein gro\sser Hauf?
W:Drob soll kein Landsknecht trauern.
W:
W:
W:  From Musica Viva - http://www.musicaviva.com
W:  the Internet center for free sheet music downloads.

